src/actions/24/document-encrypted.svg

<svg version="1.1" viewBox="0 0 24 24" xmlns="http://www.w3.org/2000/svg">
 <defs>
  <style id="current-color-scheme" type="text/css">.ColorScheme-Text {
        color:#363636;
      }</style>
 </defs>
 <path class="ColorScheme-Text" d="m12 4c-2.216 0-4 1.784-4 4v4c-1.108 0-2 0.892-2 2v4c0 1.108 0.892 2 2 2h8c1.108 0 2-0.892 2-2v-4c0-1.108-0.892-2-2-2v-4c0-2.216-1.784-4-4-4zm0 1c1.662 0 3 1.561 3 3.5v3.5h-6v-3.5c0-1.939 1.338-3.5 3-3.5zm-4 8h8c0.554 0 1 0.446 1 1v4.1797c0 0.554-0.446 1-1 1h-8c-0.554 0-1-0.446-1-1v-4.1797c0-0.554 0.446-1 1-1z" fill="currentColor"/>
</svg>

<svg xmlns="http://www.w3.org/2000/svg" viewBox="0 0 24 24">
    <path fill="currentColor" d="M12 4C9.784 4 8 5.784 8 8v4c-1.108 0-2 .892-2 2v4c0 1.108.892 2 2 2h8c1.108 0 2-.892 2-2v-4c0-1.108-.892-2-2-2V8c0-2.216-1.784-4-4-4zm0 1c1.662 0 3 1.561 3 3.5V12H9V8.5C9 6.561 10.338 5 12 5zm-4 8h8c.554 0 1 .446 1 1v4.18c0 .554-.446 1-1 1H8c-.554 0-1-.446-1-1V14c0-.554.446-1 1-1z" style="color:#050505;opacity:.7"/>
</svg>
